public/images/slider4.svg

<svg width="376" height="85" viewBox="0 0 376 85" fill="none" xmlns="http://www.w3.org/2000/svg">
<rect x="0.794922" y="0.383789" width="374.688" height="84" rx="8.32639" fill="white" fill-opacity="0.05"/>
<rect x="1.21124" y="0.800108" width="373.855" height="83.1674" rx="7.91007" stroke="url(#paint0_linear_352_403)" stroke-opacity="0.2" stroke-width="0.832639"/>
<g filter="url(#filter0_i_352_403)">
<rect x="14.1172" y="13.7061" width="348.043" height="57.3556" rx="8" fill="white" fill-opacity="0.01"/>
<rect x="14.1172" y="13.7061" width="348.043" height="57.3556" rx="8" fill="url(#paint1_linear_352_403)" fill-opacity="0.06"/>
<rect x="14.6172" y="14.2061" width="347.043" height="56.3556" rx="7.5" stroke="url(#paint2_linear_352_403)" stroke-opacity="0.2"/>
<path d="M36.8578 50.0043C38.4609 47.998 42.1172 43.1355 42.1172 40.4043C42.1172 37.0918 39.4297 34.4043 36.1172 34.4043C32.8047 34.4043 30.1172 37.0918 30.1172 40.4043C30.1172 43.1355 33.7734 47.998 35.3766 50.0043C35.7609 50.4824 36.4734 50.4824 36.8578 50.0043ZM36.1172 38.4043C36.6476 38.4043 37.1563 38.615 37.5314 38.9901C37.9065 39.3652 38.1172 39.8739 38.1172 40.4043C38.1172 40.9347 37.9065 41.4434 37.5314 41.8185C37.1563 42.1936 36.6476 42.4043 36.1172 42.4043C35.5868 42.4043 35.078 42.1936 34.703 41.8185C34.3279 41.4434 34.1172 40.9347 34.1172 40.4043C34.1172 39.8739 34.3279 39.3652 34.703 38.9901C35.078 38.615 35.5868 38.4043 36.1172 38.4043Z" fill="#FF6600"/>
<path d="M54.6212 47.8838L58.5132 37.8038H59.5212L55.7272 47.8838H54.6212ZM62.6292 47.8838L58.8352 37.8038H59.9132L63.8052 47.8838H62.6292ZM56.5532 43.8098H61.8172V44.8178H56.5532V43.8098ZM70.2613 47.8838V46.2178L70.4013 46.2598C70.2239 46.8011 69.8973 47.2305 69.4213 47.5478C68.9546 47.8651 68.3946 48.0238 67.7413 48.0238C67.0973 48.0238 66.5326 47.8698 66.0473 47.5618C65.5713 47.2538 65.1979 46.8245 64.9273 46.2738C64.6659 45.7231 64.5353 45.0791 64.5353 44.3418C64.5353 43.5951 64.6706 42.9418 64.9413 42.3818C65.2119 41.8218 65.5899 41.3878 66.0753 41.0798C66.5606 40.7718 67.1299 40.6178 67.7833 40.6178C68.4553 40.6178 69.0199 40.7811 69.4773 41.1078C69.9346 41.4345 70.2473 41.8965 70.4153 42.4938L70.1913 42.5218V37.8038H71.3113V47.8838H70.2613ZM67.9513 47.0438C68.6699 47.0438 69.2299 46.8011 69.6313 46.3158C70.0419 45.8211 70.2473 45.1491 70.2473 44.2998C70.2473 43.4691 70.0419 42.8111 69.6313 42.3258C69.2206 41.8405 68.6606 41.5978 67.9513 41.5978C67.2419 41.5978 66.6866 41.8405 66.2853 42.3258C65.8839 42.8111 65.6833 43.4831 65.6833 44.3418C65.6833 45.1818 65.8839 45.8445 66.2853 46.3298C66.6866 46.8058 67.2419 47.0438 67.9513 47.0438ZM78.7515 47.8838V46.2178L78.8915 46.2598C78.7142 46.8011 78.3875 47.2305 77.9115 47.5478C77.4448 47.8651 76.8848 48.0238 76.2315 48.0238C75.5875 48.0238 75.0228 47.8698 74.5375 47.5618C74.0615 47.2538 73.6882 46.8245 73.4175 46.2738C73.1562 45.7231 73.0255 45.0791 73.0255 44.3418C73.0255 43.5951 73.1608 42.9418 73.4315 42.3818C73.7022 41.8218 74.0802 41.3878 74.5655 41.0798C75.0508 40.7718 75.6202 40.6178 76.2735 40.6178C76.9455 40.6178 77.5102 40.7811 77.9675 41.1078C78.4248 41.4345 78.7375 41.8965 78.9055 42.4938L78.6815 42.5218V37.8038H79.8015V47.8838H78.7515ZM76.4415 47.0438C77.1602 47.0438 77.7202 46.8011 78.1215 46.3158C78.5322 45.8211 78.7375 45.1491 78.7375 44.2998C78.7375 43.4691 78.5322 42.8111 78.1215 42.3258C77.7108 41.8405 77.1508 41.5978 76.4415 41.5978C75.7322 41.5978 75.1768 41.8405 74.7755 42.3258C74.3742 42.8111 74.1735 43.4831 74.1735 44.3418C74.1735 45.1818 74.3742 45.8445 74.7755 46.3298C75.1768 46.8058 75.7322 47.0438 76.4415 47.0438ZM85.4665 50.7538L87.0625 47.0438L87.3145 46.6518L89.6525 40.7438H90.8005L86.6565 50.7538H85.4665ZM87.1885 47.9538L83.9825 40.7438H85.2145L87.9725 47.1978L87.1885 47.9538ZM94.9689 48.0238C94.2689 48.0238 93.6529 47.8605 93.1209 47.5338C92.5889 47.2071 92.1735 46.7638 91.8749 46.2038C91.5855 45.6345 91.4409 44.9951 91.4409 44.2858C91.4409 43.5671 91.5902 42.9325 91.8889 42.3818C92.1875 41.8311 92.5982 41.3971 93.1209 41.0798C93.6529 40.7625 94.2689 40.6038 94.9689 40.6038C95.6782 40.6038 96.2942 40.7625 96.8169 41.0798C97.3489 41.3971 97.7595 41.8311 98.0489 42.3818C98.3475 42.9325 98.4969 43.5671 98.4969 44.2858C98.4969 44.9951 98.3475 45.6345 98.0489 46.2038C97.7595 46.7638 97.3489 47.2071 96.8169 47.5338C96.2942 47.8605 95.6782 48.0238 94.9689 48.0238ZM94.9689 47.0718C95.4542 47.0718 95.8742 46.9551 96.2289 46.7218C96.5835 46.4791 96.8589 46.1478 97.0549 45.7278C97.2509 45.3078 97.3489 44.8225 97.3489 44.2718C97.3489 43.4505 97.1295 42.7925 96.6909 42.2978C96.2615 41.8031 95.6875 41.5558 94.9689 41.5558C94.2595 41.5558 93.6855 41.8031 93.2469 42.2978C92.8082 42.7925 92.5889 43.4505 92.5889 44.2718C92.5889 44.8225 92.6869 45.3078 92.8829 45.7278C93.0789 46.1478 93.3542 46.4791 93.7089 46.7218C94.0729 46.9551 94.4929 47.0718 94.9689 47.0718ZM102.501 48.0238C102.034 48.0238 101.619 47.9305 101.255 47.7438C100.891 47.5478 100.606 47.2771 100.401 46.9318C100.195 46.5771 100.093 46.1711 100.093 45.7138V40.7438H101.213V45.4198C101.213 45.9611 101.343 46.3671 101.605 46.6378C101.875 46.9085 102.258 47.0438 102.753 47.0438C103.201 47.0438 103.597 46.9411 103.943 46.7358C104.288 46.5305 104.559 46.2458 104.755 45.8818C104.96 45.5085 105.063 45.0838 105.063 44.6078L105.245 46.3018C105.011 46.8338 104.647 47.2538 104.153 47.5618C103.658 47.8698 103.107 48.0238 102.501 48.0238ZM105.133 47.8838V46.2038H105.063V40.7438H106.183V47.8838H105.133ZM108.421 47.8838V40.7438H109.471V42.5638H109.541V47.8838H108.421ZM109.541 44.1598L109.359 42.4658C109.527 41.8591 109.825 41.3971 110.255 41.0798C110.684 40.7625 111.179 40.6038 111.739 40.6038C111.972 40.6038 112.131 40.6225 112.215 40.6598V41.7378C112.168 41.7191 112.103 41.7098 112.019 41.7098C111.935 41.7005 111.832 41.6958 111.711 41.6958C111.001 41.6958 110.46 41.9105 110.087 42.3398C109.723 42.7598 109.541 43.3665 109.541 44.1598ZM116.474 47.8838V37.8038H117.594V47.8838H116.474ZM122.805 48.0238C122.105 48.0238 121.489 47.8605 120.957 47.5338C120.425 47.2071 120.009 46.7638 119.711 46.2038C119.421 45.6345 119.277 44.9951 119.277 44.2858C119.277 43.5671 119.426 42.9325 119.725 42.3818C120.023 41.8311 120.434 41.3971 120.957 41.0798C121.489 40.7625 122.105 40.6038 122.805 40.6038C123.514 40.6038 124.13 40.7625 124.653 41.0798C125.185 41.3971 125.595 41.8311 125.885 42.3818C126.183 42.9325 126.333 43.5671 126.333 44.2858C126.333 44.9951 126.183 45.6345 125.885 46.2038C125.595 46.7638 125.185 47.2071 124.653 47.5338C124.13 47.8605 123.514 48.0238 122.805 48.0238ZM122.805 47.0718C123.29 47.0718 123.71 46.9551 124.065 46.7218C124.419 46.4791 124.695 46.1478 124.891 45.7278C125.087 45.3078 125.185 44.8225 125.185 44.2718C125.185 43.4505 124.965 42.7925 124.527 42.2978C124.097 41.8031 123.523 41.5558 122.805 41.5558C122.095 41.5558 121.521 41.8031 121.083 42.2978C120.644 42.7925 120.425 43.4505 120.425 44.2718C120.425 44.8225 120.523 45.3078 120.719 45.7278C120.915 46.1478 121.19 46.4791 121.545 46.7218C121.909 46.9551 122.329 47.0718 122.805 47.0718ZM130.841 48.0238C130.187 48.0238 129.604 47.8651 129.091 47.5478C128.587 47.2211 128.185 46.7778 127.887 46.2178C127.597 45.6485 127.453 45.0045 127.453 44.2858C127.453 43.5671 127.597 42.9325 127.887 42.3818C128.185 41.8311 128.587 41.3971 129.091 41.0798C129.604 40.7625 130.183 40.6038 130.827 40.6038C131.359 40.6038 131.835 40.7065 132.255 40.9118C132.684 41.1171 133.034 41.4111 133.305 41.7938C133.585 42.1671 133.762 42.6058 133.837 43.1098H132.801C132.707 42.6525 132.493 42.2791 132.157 41.9898C131.821 41.7005 131.387 41.5558 130.855 41.5558C130.397 41.5558 130.001 41.6678 129.665 41.8918C129.329 42.1158 129.067 42.4331 128.881 42.8438C128.694 43.2545 128.601 43.7351 128.601 44.2858C128.601 44.8365 128.694 45.3218 128.881 45.7418C129.067 46.1618 129.329 46.4885 129.665 46.7218C130.01 46.9551 130.411 47.0718 130.869 47.0718C131.382 47.0718 131.811 46.9318 132.157 46.6518C132.502 46.3625 132.721 45.9891 132.815 45.5318H133.851C133.767 46.0265 133.58 46.4651 133.291 46.8478C133.011 47.2211 132.661 47.5105 132.241 47.7158C131.821 47.9211 131.354 48.0238 130.841 48.0238ZM139.832 47.8838C139.795 47.7251 139.767 47.5431 139.748 47.3378C139.739 47.1325 139.734 46.8711 139.734 46.5538H139.664V43.1378C139.664 42.5965 139.538 42.1998 139.286 41.9478C139.043 41.6865 138.647 41.5558 138.096 41.5558C137.555 41.5558 137.121 41.6678 136.794 41.8918C136.477 42.1065 136.299 42.4145 136.262 42.8158H135.184C135.231 42.1251 135.52 41.5838 136.052 41.1918C136.584 40.7998 137.279 40.6038 138.138 40.6038C139.025 40.6038 139.683 40.8138 140.112 41.2338C140.541 41.6538 140.756 42.2838 140.756 43.1238V46.5538C140.756 46.7591 140.77 46.9738 140.798 47.1978C140.826 47.4125 140.863 47.6411 140.91 47.8838H139.832ZM137.382 48.0238C136.645 48.0238 136.057 47.8465 135.618 47.4918C135.189 47.1278 134.974 46.6331 134.974 46.0078C134.974 45.3825 135.189 44.8971 135.618 44.5518C136.047 44.2065 136.673 43.9638 137.494 43.8238L139.986 43.4038V44.3278L137.662 44.6918C137.139 44.7758 136.743 44.9158 136.472 45.1118C136.201 45.3078 136.066 45.5925 136.066 45.9658C136.066 46.3298 136.187 46.6051 136.43 46.7918C136.682 46.9785 137.051 47.0718 137.536 47.0718C138.161 47.0718 138.67 46.9318 139.062 46.6518C139.463 46.3625 139.664 45.9891 139.664 45.5318L139.846 46.5258C139.697 47.0018 139.403 47.3705 138.964 47.6318C138.535 47.8931 138.007 48.0238 137.382 48.0238ZM145.58 48.0098C144.786 48.0098 144.208 47.8325 143.844 47.4778C143.489 47.1138 143.312 46.5911 143.312 45.9098V39.0778L144.432 38.6578V45.8958C144.432 46.2971 144.534 46.5911 144.74 46.7778C144.945 46.9645 145.281 47.0578 145.748 47.0578C145.934 47.0578 146.093 47.0485 146.224 47.0298C146.364 47.0018 146.476 46.9691 146.56 46.9318V47.8838C146.466 47.9211 146.331 47.9491 146.154 47.9678C145.986 47.9958 145.794 48.0098 145.58 48.0098ZM141.842 41.6958V40.7438H146.56V41.6958H141.842ZM148.001 47.8838V40.7438H149.121V47.8838H148.001ZM147.917 39.1198V37.8038H149.205V39.1198H147.917ZM154.305 48.0238C153.605 48.0238 152.989 47.8605 152.457 47.5338C151.925 47.2071 151.509 46.7638 151.211 46.2038C150.921 45.6345 150.777 44.9951 150.777 44.2858C150.777 43.5671 150.926 42.9325 151.225 42.3818C151.523 41.8311 151.934 41.3971 152.457 41.0798C152.989 40.7625 153.605 40.6038 154.305 40.6038C155.014 40.6038 155.63 40.7625 156.153 41.0798C156.685 41.3971 157.095 41.8311 157.385 42.3818C157.683 42.9325 157.833 43.5671 157.833 44.2858C157.833 44.9951 157.683 45.6345 157.385 46.2038C157.095 46.7638 156.685 47.2071 156.153 47.5338C155.63 47.8605 155.014 48.0238 154.305 48.0238ZM154.305 47.0718C154.79 47.0718 155.21 46.9551 155.565 46.7218C155.919 46.4791 156.195 46.1478 156.391 45.7278C156.587 45.3078 156.685 44.8225 156.685 44.2718C156.685 43.4505 156.465 42.7925 156.027 42.2978C155.597 41.8031 155.023 41.5558 154.305 41.5558C153.595 41.5558 153.021 41.8031 152.583 42.2978C152.144 42.7925 151.925 43.4505 151.925 44.2718C151.925 44.8225 152.023 45.3078 152.219 45.7278C152.415 46.1478 152.69 46.4791 153.045 46.7218C153.409 46.9551 153.829 47.0718 154.305 47.0718ZM159.513 47.8838V40.7438H160.563V42.4238H160.633V47.8838H159.513ZM164.623 47.8838V43.2078C164.623 42.6665 164.487 42.2605 164.217 41.9898C163.946 41.7191 163.545 41.5838 163.013 41.5838C162.546 41.5838 162.131 41.6865 161.767 41.8918C161.412 42.0971 161.132 42.3818 160.927 42.7458C160.731 43.1098 160.633 43.5345 160.633 44.0198L160.451 42.3258C160.693 41.7938 161.062 41.3738 161.557 41.0658C162.061 40.7578 162.63 40.6038 163.265 40.6038C164.011 40.6038 164.609 40.8185 165.057 41.2478C165.514 41.6678 165.743 42.2231 165.743 42.9138V47.8838H164.623Z" fill="white"/>
</g>
<defs>
<filter id="filter0_i_352_403" x="-105.883" y="-106.294" width="588.043" height="297.355" filterUnits="userSpaceOnUse" color-interpolation-filters="sRGB">
<feFlood flood-opacity="0" result="BackgroundImageFix"/>
<feBlend mode="normal" in="SourceGraphic" in2="BackgroundImageFix" result="shape"/>
<feColorMatrix in="SourceAlpha" type="matrix" values="0 0 0 0 0 0 0 0 0 0 0 0 0 0 0 0 0 0 127 0" result="hardAlpha"/>
<feOffset dy="5"/>
<feGaussianBlur stdDeviation="4.5"/>
<feComposite in2="hardAlpha" operator="arithmetic" k2="-1" k3="1"/>
<feColorMatrix type="matrix" values="0 0 0 0 1 0 0 0 0 1 0 0 0 0 1 0 0 0 0.08 0"/>
<feBlend mode="normal" in2="shape" result="effect1_innerShadow_352_403"/>
</filter>
<linearGradient id="paint0_linear_352_403" x1="188.139" y1="0.383789" x2="188.139" y2="84.3838" gradientUnits="userSpaceOnUse">
<stop stop-color="#EFEFEF"/>
<stop offset="1" stop-color="#EFEFEF" stop-opacity="0.58"/>
</linearGradient>
<linearGradient id="paint1_linear_352_403" x1="188.139" y1="13.7061" x2="188.139" y2="71.0616" gradientUnits="userSpaceOnUse">
<stop stop-color="white" stop-opacity="0"/>
<stop offset="1" stop-color="white"/>
</linearGradient>
<linearGradient id="paint2_linear_352_403" x1="362.16" y1="42.3838" x2="14.1172" y2="42.3838" gradientUnits="userSpaceOnUse">
<stop stop-color="white" stop-opacity="0.2"/>
<stop offset="0.5" stop-color="white"/>
<stop offset="1" stop-color="white" stop-opacity="0.2"/>
</linearGradient>
</defs>
</svg>

<svg xmlns="http://www.w3.org/2000/svg" width="376" height="85" fill="none"><rect width="374.688" height="84" x=".795" y=".384" fill="#fff" fill-opacity=".05" rx="8.326"/><rect width="373.855" height="83.167" x="1.211" y=".8" stroke="url(#a)" stroke-opacity=".2" stroke-width=".833" rx="7.91"/><g filter="url(#b)"><rect width="348.043" height="57.356" x="14.117" y="13.706" fill="#fff" fill-opacity=".01" rx="8"/><rect width="348.043" height="57.356" x="14.117" y="13.706" fill="url(#c)" fill-opacity=".06" rx="8"/><rect width="347.043" height="56.356" x="14.617" y="14.206" stroke="url(#d)" stroke-opacity=".2" rx="7.5"/><path fill="#F60" d="M36.858 50.004c1.603-2.006 5.26-6.868 5.26-9.6 0-3.312-2.688-6-6-6-3.313 0-6 2.688-6 6 0 2.731 3.655 7.594 5.259 9.6a.944.944 0 0 0 1.48 0m-.74-11.6a2 2 0 1 1 0 4 2 2 0 0 1 0-4"/><path fill="#fff" d="m54.621 47.884 3.892-10.08h1.008l-3.794 10.08zm8.008 0-3.794-10.08h1.078l3.892 10.08zm-6.076-4.074h5.264v1.008h-5.264zm13.708 4.074v-1.666l.14.042a2.4 2.4 0 0 1-.98 1.288q-.699.476-1.68.476-.966 0-1.694-.462a3.15 3.15 0 0 1-1.12-1.288q-.392-.826-.392-1.932 0-1.12.406-1.96t1.134-1.302 1.708-.462q1.008 0 1.694.49t.938 1.386l-.224.028v-4.718h1.12v10.08zm-2.31-.84q1.078 0 1.68-.728.615-.742.616-2.016 0-1.246-.616-1.974-.615-.728-1.68-.728t-1.666.728q-.602.727-.602 2.016 0 1.26.602 1.988.603.714 1.666.714m10.8.84v-1.666l.14.042q-.266.811-.98 1.288-.699.476-1.68.476-.965 0-1.694-.462a3.15 3.15 0 0 1-1.12-1.288q-.391-.826-.392-1.932 0-1.12.406-1.96t1.135-1.302 1.707-.462q1.008 0 1.695.49.686.49.938 1.386l-.225.028v-4.718h1.12v10.08zm-2.31-.84q1.08 0 1.68-.728.617-.742.617-2.016 0-1.246-.617-1.974-.615-.728-1.68-.728-1.063 0-1.666.728-.601.727-.602 2.016 0 1.26.602 1.988.603.714 1.666.714m9.025 3.71 1.597-3.71.251-.392 2.339-5.908H90.8l-4.144 10.01zm1.723-2.8-3.206-7.21h1.231l2.758 6.454zm7.78.07q-1.05 0-1.848-.49a3.4 3.4 0 0 1-1.246-1.33q-.435-.855-.434-1.918 0-1.079.448-1.904.449-.826 1.232-1.302.798-.476 1.848-.476 1.064 0 1.848.476.798.476 1.232 1.302.448.825.448 1.904 0 1.065-.448 1.918-.435.84-1.232 1.33-.785.49-1.848.49m0-.952q.728 0 1.26-.35a2.4 2.4 0 0 0 .826-.994q.294-.63.294-1.456 0-1.233-.658-1.974-.645-.742-1.722-.742-1.064 0-1.722.742-.658.741-.658 1.974 0 .826.294 1.456t.826.994q.546.35 1.26.35m7.532.952a2.7 2.7 0 0 1-1.246-.28 2.17 2.17 0 0 1-.854-.812 2.4 2.4 0 0 1-.308-1.218v-4.97h1.12v4.676q0 .811.392 1.218.405.405 1.148.406.671 0 1.19-.308a2.17 2.17 0 0 0 .812-.854q.308-.56.308-1.274l.182 1.694a2.77 2.77 0 0 1-1.092 1.26 3.07 3.07 0 0 1-1.652.462m2.632-.14v-1.68h-.07v-5.46h1.12v7.14zm3.288 0v-7.14h1.05v1.82h.07v5.32zm1.12-3.724-.182-1.694q.252-.91.896-1.386a2.43 2.43 0 0 1 1.484-.476q.35 0 .476.056v1.078a.6.6 0 0 0-.196-.028 3 3 0 0 0-.308-.014q-1.065 0-1.624.644-.546.63-.546 1.82m6.933 3.724v-10.08h1.12v10.08zm6.331.14q-1.05 0-1.848-.49a3.4 3.4 0 0 1-1.246-1.33q-.434-.855-.434-1.918 0-1.079.448-1.904.447-.826 1.232-1.302.798-.476 1.848-.476 1.064 0 1.848.476.797.476 1.232 1.302.448.825.448 1.904 0 1.065-.448 1.918-.435.84-1.232 1.33-.784.49-1.848.49m0-.952q.727 0 1.26-.35.531-.364.826-.994t.294-1.456q0-1.233-.658-1.974-.645-.742-1.722-.742-1.065 0-1.722.742-.658.741-.658 1.974 0 .826.294 1.456t.826.994q.546.35 1.26.35m8.036.952q-.98 0-1.75-.476a3.5 3.5 0 0 1-1.204-1.33q-.434-.855-.434-1.932 0-1.079.434-1.904.447-.826 1.204-1.302a3.23 3.23 0 0 1 1.736-.476 3.2 3.2 0 0 1 1.428.308q.644.308 1.05.882.42.56.532 1.316h-1.036a1.95 1.95 0 0 0-.644-1.12q-.504-.434-1.302-.434-.686 0-1.19.336a2.2 2.2 0 0 0-.784.952q-.28.615-.28 1.442 0 .825.28 1.456.28.63.784.98.517.35 1.204.35.77 0 1.288-.42.517-.435.658-1.12h1.036a3 3 0 0 1-.56 1.316 2.9 2.9 0 0 1-1.05.868q-.63.308-1.4.308m8.991-.14a4 4 0 0 1-.084-.546 18 18 0 0 1-.014-.784h-.07v-3.416q0-.812-.378-1.19-.364-.392-1.19-.392-.811 0-1.302.336-.476.321-.532.924h-1.078q.07-1.035.868-1.624.798-.588 2.086-.588 1.33 0 1.974.63t.644 1.89v3.43q0 .308.042.644.042.322.112.686zm-2.45.14q-1.105 0-1.764-.532-.644-.546-.644-1.484t.644-1.456 1.876-.728l2.492-.42v.924l-2.324.364q-.784.126-1.19.42-.406.293-.406.854 0 .547.364.826.378.28 1.106.28.938 0 1.526-.42.602-.435.602-1.12l.182.994a1.92 1.92 0 0 1-.882 1.106q-.644.392-1.582.392m8.198-.014q-1.19 0-1.736-.532-.532-.546-.532-1.568v-6.832l1.12-.42v7.238q0 .601.308.882.308.28 1.008.28.28 0 .476-.028.21-.041.336-.098v.952a1.6 1.6 0 0 1-.406.084q-.252.042-.574.042m-3.738-6.314v-.952h4.718v.952zm6.159 6.188v-7.14h1.12v7.14zm-.084-8.764v-1.316h1.288v1.316zm6.388 8.904q-1.05 0-1.848-.49a3.4 3.4 0 0 1-1.246-1.33q-.435-.855-.434-1.918 0-1.079.448-1.904.447-.826 1.232-1.302.798-.476 1.848-.476 1.063 0 1.848.476.798.476 1.232 1.302.448.825.448 1.904 0 1.065-.448 1.918-.434.84-1.232 1.33-.785.49-1.848.49m0-.952q.728 0 1.26-.35.531-.364.826-.994t.294-1.456q0-1.233-.658-1.974-.645-.742-1.722-.742-1.065 0-1.722.742-.658.741-.658 1.974 0 .826.294 1.456t.826.994q.546.35 1.26.35m5.208.812v-7.14h1.05v1.68h.07v5.46zm5.11 0v-4.676q0-.811-.406-1.218-.406-.405-1.204-.406-.7 0-1.246.308-.532.308-.84.854-.294.545-.294 1.274l-.182-1.694a2.84 2.84 0 0 1 1.106-1.26 3.2 3.2 0 0 1 1.708-.462q1.12 0 1.792.644.686.63.686 1.666v4.97z"/></g><defs><linearGradient id="a" x1="188.139" x2="188.139" y1=".384" y2="84.384" gradientUnits="userSpaceOnUse"><stop stop-color="#EFEFEF"/><stop offset="1" stop-color="#EFEFEF" stop-opacity=".58"/></linearGradient><linearGradient id="c" x1="188.139" x2="188.139" y1="13.706" y2="71.062" gradientUnits="userSpaceOnUse"><stop stop-color="#fff" stop-opacity="0"/><stop offset="1" stop-color="#fff"/></linearGradient><linearGradient id="d" x1="362.16" x2="14.117" y1="42.384" y2="42.384" gradientUnits="userSpaceOnUse"><stop stop-color="#fff" stop-opacity=".2"/><stop offset=".5" stop-color="#fff"/><stop offset="1" stop-color="#fff" stop-opacity=".2"/></linearGradient><filter id="b" width="588.043" height="297.355" x="-105.883" y="-106.294" color-interpolation-filters="sRGB" filterUnits="userSpaceOnUse"><feFlood flood-opacity="0" result="BackgroundImageFix"/><feBlend in="SourceGraphic" in2="BackgroundImageFix" result="shape"/><feColorMatrix in="SourceAlpha" result="hardAlpha" values="0 0 0 0 0 0 0 0 0 0 0 0 0 0 0 0 0 0 127 0"/><feOffset dy="5"/><feGaussianBlur stdDeviation="4.5"/><feComposite in2="hardAlpha" k2="-1" k3="1" operator="arithmetic"/><feColorMatrix values="0 0 0 0 1 0 0 0 0 1 0 0 0 0 1 0 0 0 0.08 0"/><feBlend in2="shape" result="effect1_innerShadow_352_403"/></filter></defs></svg>
